X:1
T:Caroling, Caroling All Thro’ the Night
T:Caroling, Caroling All Thro’ the Night
T:Caleb Simper
T:Tom Dodsworth Hyde, before 1917
T:Public Domain Courtesy of the Cyber Hymnal™
T:Public Domain Courtesy of the Cyber Hymnal™
C:Caleb Simper
Z:Public Domain
Z:Courtesy of the Cyber Hymnal™
%%score ( 1 2 ) ( 3 4 ) ( 5 6 ) ( 7 8 )
L:1/8
Q:3/8=42
M:6/8
K:Bb
V:1 treble 
V:2 treble 
V:3 bass 
V:4 bass 
V:5 treble 
V:6 treble 
V:7 bass 
V:8 bass 
V:1
 [Dd]>[Dc][DB] [EF]>[EG][EF] | [Dd]>[Dc][DB] [EF]3 | F>[=FG][FA] [FB]>[Fc][^Fd] | [Gc]6 | %4
w: 1.~Car- ol- ing, car- ol- ing,|all thro’ the night,|Mu- sic God’s love did in-|spire;|
w: 2.~Glo- ry, O glo- ry, thus|rang the glad strain,|Glo- ry to God with sweet|peace!|
w: 3.~Sing- ing, O sing- ing, blest|an- gels so fair,|Mel- o- dies sweet and sub-|lime!|
w: 4.~Car- ol, then car- ol, for|ho- ly the joy,|Flow- ing from Je- sus the|King;|
 [Ee]>[Ed][Ec] [FG]>[F_A]G | [Ee]>[Ed][Ec] [FG]3 | [Gc][Gc][FB] [EA][EA][EG] | [EF]6 || %8
w: An- gels from Glo- ry are|wing- ing their flight,|Bright robed and gold- en that|choir!|
w: Mor- tals and sin- ners, Christ|com- eth to reign,|Sor- row and sigh- ing shall|cease.|
w: Sooth- ing the hearts that are|wea- ry with care,|Waft- ing glad tid- ings di-|vine.|
w: Voic- es, ten thou- sand, come,|glad notes em- ploy,|Glo- ri- a, Glo- ri- a|sing!|
"^Refrain" [DF]2 [FB] (AB)[Ec] | [DB]3 F3 | (FG)[FA] [FB]>[Fc][=Ed] | [Fc]6 | %12
w: ||||
w: Hark, the her- * ald|an- gels,|In * the hea- ven- ly|choir,|
w: ||||
w: ||||
 [Fd]2 [Fc] (=Bd)[Ff] | (e2 d) [Gc]3 | [Gd]2 [GB] [Gd]2 [GB] | d6 | ([Ee][Fd])[Gc] (FB)[EA] | %17
w: |||||
w: Christ- mas glo- * ry|chant- * ing,|Strik- ing harp and|lyre!|Strik- * ing harp * and|
w: |||||
w: |||||
 [DB]6 |] %18
w: |
w: lyre!|
w: |
w: |
V:2
 x6 | x6 | ^F3/2 x9/2 | x6 | x5 G | x6 | x6 | x6 || x3 E2 x | x3 F3 | F2 x4 | x6 | x3 F2 x | %13
 G3 x3 | x6 | (^F3 =F3) | x3 F2 x | x6 |] %18
V:3
 [B,,B,]>[B,,B,][B,,B,] [A,,C]>[A,,C][A,,C] | [B,,B,]>[B,,B,][B,,B,] [C,A,]3 | %2
 [D,B,]>[D,B,][D,F,] [D,B,]>[D,B,][D,B,] | [E,G,]6 | [C,C]>[C,C][C,C] [=B,,D]>[B,,D][B,,D] | %5
 [C,C]>[C,C][C,C] [D,=B,]3 | [E,C][E,C][D,F,] [C,A,][C,A,][B,,B,] | [A,,C]6 || %8
 [B,,B,]2 [D,B,] (CB,)[F,A,] | [G,B,]3 [A,C]3 | [B,D]2 [A,C] [G,B,]>[G,B,][C,B,] | [F,A,]6 | %12
 B,2 [_A,C] [G,D]2 [G,=B,] | [C,C]2 [D,=B,] [E,C]3 | [D,B,]2 [D,D] [D,B,]2 [D,D] | %15
 ([D,A,]3 [G,=B,]3) | ([C,C][D,=B,])[E,C] [F,D]2 [F,C] | [B,,B,]6 |] %18
V:4
 x6 | x6 | x6 | x6 | x6 | x6 | x6 | x6 || x3 F,2 x | x6 | x6 | x6 | =B,2 x4 | x6 | x6 | x6 | x6 | %17
 x6 |] %18
V:5
 d>cB F>GF | (d>cB [EF]3) | F>GA B>c[^Fd] | [Gc]6 | e>dc G>_AG | (e>dc [FG]3) | [Gc]2 [FB] A2 G | %7
 [EF]6 || x6 | x6 | x6 | x6 | x6 | x6 | x6 | x6 | x6 | x6 |] %18
V:6
 D3 E3 | D3 x3 | ^F3- F2 x | x6 | E3 F3 | E3 x3 | x3 E3- | x6 || x6 | x6 | x6 | x6 | x6 | x6 | x6 | %15
 x6 | x6 | x6 |] %18
V:7
 [B,,B,]3 [A,,C]3 | [B,,B,]3 [C,A,]3 | B,2 F, B,3 | [E,G,]6 | [C,C]3 [=B,,D]3 | [C,C]3 [D,=B,]3 | %6
 [E,C]2 [D,F,] [C,A,]2 [B,,B,] | [A,,C]6 || x6 | x6 | x6 | x6 | x6 | x6 | x6 | x6 | x6 | x6 |] %18
V:8
 x6 | x6 | D,6 | x6 | x6 | x6 | x6 | x6 || x6 | x6 | x6 | x6 | x6 | x6 | x6 | x6 | x6 | x6 |] %18

